icons-common/home.svg

<svg height="1em" width="auto" viewBox="0 0 105 105" fill="currentColor" xmlns="http://www.w3.org/2000/svg">
    <path d="M73.9821 33.2783C73.9821 33.2783 64.1322 21.0121 57.2725 17.978C54.81 16.8511 51.9078 16.8511 49.4453 17.978C42.6296 21.0121 32.8236 33.1916 32.8236 33.1916C32.8236 33.1916 24.3369 42.3805 24.3369 48.9254V68.1266C24.3369 78.6158 32.9556 87.1112 43.553 87.1112H63.0769C73.6743 87.1112 82.3369 78.6158 82.3369 68.1266V48.9254C82.3369 42.4672 73.9821 33.3217 73.9821 33.3217V33.2783ZM74.6417 68.0833C74.6417 74.3681 69.4529 79.4827 63.0769 79.4827H43.553C37.2209 79.4827 32.0321 74.3681 32.0321 68.0833V48.9254C32.0321 46.3248 32.9116 43.8975 34.4506 41.9471C34.8464 41.4703 35.2421 40.9935 35.7258 40.6034C39.2437 36.7458 42.9813 33.0183 46.8949 29.9409C47.4226 29.4641 47.9942 29.0306 48.5219 28.6406C51.3801 26.5167 55.3377 26.5167 58.2399 28.6406C58.7675 29.0306 59.3392 29.4641 59.8669 29.9409C63.8684 33.105 67.65 36.9192 71.2558 40.8635C71.5196 41.1669 71.7835 41.4269 72.0473 41.7303C73.6303 43.6808 74.6417 46.1947 74.6417 48.9254V68.1266V68.0833Z"
          />
</svg>

<svg xmlns="http://www.w3.org/2000/svg" width="auto" height="1em" fill="currentColor" viewBox="0 0 105 105">
    <path d="M73.982 33.278s-9.85-12.266-16.71-15.3a9.48 9.48 0 0 0-7.827 0c-6.815 3.034-16.621 15.214-16.621 15.214s-8.487 9.188-8.487 15.733v19.202c0 10.489 8.619 18.984 19.216 18.984h19.524c10.597 0 19.26-8.495 19.26-18.984V48.925c0-6.458-8.355-15.603-8.355-15.603zm.66 34.805c0 6.285-5.19 11.4-11.565 11.4H43.553c-6.332 0-11.52-5.115-11.52-11.4V48.925c0-2.6.879-5.027 2.418-6.978.395-.477.791-.954 1.275-1.344 3.518-3.857 7.255-7.585 11.169-10.662.528-.477 1.1-.91 1.627-1.3 2.858-2.124 6.816-2.124 9.718 0 .527.39 1.1.823 1.627 1.3 4.001 3.164 7.783 6.978 11.389 10.923.264.303.528.563.791.866 1.583 1.95 2.595 4.465 2.595 7.195v19.202z"/>
</svg>
